Mono Glyph Icons/misc/misc-unfilled/villa.svg

<svg height="48" viewBox="0 -960 960 960" width="48" xmlns="http://www.w3.org/2000/svg"><path d="m109-203v-388q0-29.21 16.67-53.17 16.66-23.95 43.33-34.83l412-159q24-9 44.5 5.4t20.5 39.6v302h63q0-29.75 20.8-50.88 20.79-21.12 50-21.12 29.2 0 50.2 21.12 21 21.13 21 50.88v288q0 38.75-27.62 66.37-27.63 27.63-66.38 27.63h-554q-38.75 0-66.37-27.63-27.63-27.62-27.63-66.37zm82 12h168v-206q0-38.75 27.63-66.38 27.62-27.62 66.37-27.62h111v-251l-373 144zm250 0h123v-69q0-17.42 11.78-29.21 11.77-11.79 29.18-11.79 17.42 0 29.23 11.79 11.81 11.79 11.81 29.21v69h123v-218h-328z"/></svg>

<svg xmlns="http://www.w3.org/2000/svg" height="48" viewBox="0 -960 960 960" width="48"><path d="M109-203v-388q0-29.21 16.67-53.17Q142.33-668.12 169-679l412-159q24-9 44.5 5.4T646-793v302h63q0-29.75 20.8-50.88 20.79-21.12 50-21.12 29.2 0 50.2 21.12 21 21.13 21 50.88v288q0 38.75-27.62 66.37Q795.75-109 757-109H203q-38.75 0-66.37-27.63Q109-164.25 109-203Zm82 12h168v-206q0-38.75 27.63-66.38Q414.25-491 453-491h111v-251L191-598v407Zm250 0h123v-69q0-17.42 11.78-29.21Q587.55-301 604.96-301q17.42 0 29.23 11.79Q646-277.42 646-260v69h123v-218H441v218Zm-63-276Zm227 167Zm0 0Z"/></svg>
